X: 1
T: Old Claddagh Ring, The
M: 3/4
L: 1/8
R: waltz
K: Gmaj
D2 | G4AG | E4D2 | d4ed | d2B3d | e2g2e2 | d2B2A2 | G4AB | A4 D2 |!
G4AG | E4D2 | d4ed | d2B3d | e2g2e2 | d2B2G2 | A3GA2 | G4 d2 |!
d4Bc | d4ef | g4fg | e2d3d | e2g2e2 | d4BA | G4AB | A4D2 |!
G4AG | E4D2 | d4ed | d2B3d | e2g2e2 | d2B2G2 | A3GA2 | G4
